assets/icons/24px/stroke/phone-signal-24px.svg

<svg width="24" height="24" viewBox="0 0 24 24" fill="none" xmlns="http://www.w3.org/2000/svg">
<path fill-rule="evenodd" clip-rule="evenodd" d="M4.94561 12C4.96372 12 4.98186 12 5.00001 12C5.01817 12 5.03631 12 5.05442 12C5.47849 11.9999 5.89062 11.9998 6.23053 12.0455C6.61374 12.0971 7.05101 12.2226 7.41423 12.5858C7.77744 12.949 7.90297 13.3863 7.95449 13.7695C8.00019 14.1094 8.0001 14.5215 8.00002 14.9456C8.00002 14.9637 8.00001 14.9819 8.00001 15V19C8.00001 19.0182 8.00002 19.0363 8.00002 19.0544C8.0001 19.4785 8.00019 19.8906 7.95449 20.2305C7.90297 20.6137 7.77744 21.051 7.41423 21.4142C7.05101 21.7774 6.61374 21.903 6.23053 21.9545C5.89062 22.0002 5.47849 22.0001 5.05443 22C5.03631 22 5.01817 22 5.00001 22C4.98186 22 4.96372 22 4.9456 22C4.52153 22.0001 4.10941 22.0002 3.76949 21.9545C3.38629 21.903 2.94902 21.7774 2.5858 21.4142C2.22259 21.051 2.09706 20.6137 2.04554 20.2305C1.99984 19.8906 1.99992 19.4785 2.00001 19.0544C2.00001 19.0363 2.00001 19.0182 2.00001 19V15C2.00001 14.9819 2.00001 14.9637 2.00001 14.9456C1.99992 14.5215 1.99984 14.1094 2.04554 13.7695C2.09706 13.3863 2.22259 12.949 2.5858 12.5858C2.94902 12.2226 3.38629 12.0971 3.76949 12.0455C4.10941 11.9998 4.52154 11.9999 4.94561 12ZM4.02871 14.0287C4.02838 14.0311 4.02804 14.0335 4.02771 14.036C4.00214 14.2262 4.00001 14.5003 4.00001 15V19C4.00001 19.4997 4.00214 19.7738 4.02771 19.964C4.02804 19.9665 4.02838 19.9689 4.02871 19.9713C4.03108 19.9717 4.03351 19.972 4.03599 19.9723C4.22618 19.9979 4.50034 20 5.00001 20C5.49969 20 5.77385 19.9979 5.96404 19.9723C5.96652 19.972 5.96894 19.9717 5.97132 19.9713C5.97165 19.9689 5.97199 19.9665 5.97232 19.964C5.99789 19.7738 6.00001 19.4997 6.00001 19V15C6.00001 14.5003 5.99789 14.2262 5.97232 14.036C5.97199 14.0335 5.97165 14.0311 5.97132 14.0287C5.96894 14.0284 5.96652 14.028 5.96404 14.0277C5.77385 14.0021 5.49969 14 5.00001 14C4.50034 14 4.22618 14.0021 4.03599 14.0277C4.03351 14.028 4.03108 14.0284 4.02871 14.0287Z" fill="white"/>
<path fill-rule="evenodd" clip-rule="evenodd" d="M11.9456 7.00001C11.9637 7.00001 11.9819 7.00001 12 7.00001C12.0182 7.00001 12.0363 7.00001 12.0544 7.00001C12.4785 6.99992 12.8906 6.99984 13.2305 7.04554C13.6137 7.09706 14.051 7.22259 14.4142 7.5858C14.7774 7.94902 14.903 8.38629 14.9545 8.76949C15.0002 9.10941 15.0001 9.52154 15 9.9456C15 9.96372 15 9.98186 15 10V19C15 19.0182 15 19.0363 15 19.0544C15.0001 19.4785 15.0002 19.8906 14.9545 20.2305C14.903 20.6137 14.7774 21.051 14.4142 21.4142C14.051 21.7774 13.6137 21.903 13.2305 21.9545C12.8906 22.0002 12.4785 22.0001 12.0544 22C12.0363 22 12.0182 22 12 22C11.9819 22 11.9637 22 11.9456 22C11.5215 22.0001 11.1094 22.0002 10.7695 21.9545C10.3863 21.903 9.94902 21.7774 9.5858 21.4142C9.22259 21.051 9.09706 20.6137 9.04554 20.2305C8.99984 19.8906 8.99992 19.4785 9.00001 19.0544C9.00001 19.0363 9.00001 19.0182 9.00001 19V10C9.00001 9.98186 9.00001 9.96372 9.00001 9.94561C8.99992 9.52154 8.99984 9.10941 9.04554 8.76949C9.09706 8.38629 9.22259 7.94902 9.5858 7.5858C9.94902 7.22259 10.3863 7.09706 10.7695 7.04554C11.1094 6.99984 11.5215 6.99992 11.9456 7.00001ZM11.0287 9.02871C11.0284 9.03108 11.028 9.03351 11.0277 9.03599C11.0021 9.22618 11 9.50034 11 10V19C11 19.4997 11.0021 19.7738 11.0277 19.964C11.028 19.9665 11.0284 19.9689 11.0287 19.9713C11.0311 19.9717 11.0335 19.972 11.036 19.9723C11.2262 19.9979 11.5003 20 12 20C12.4997 20 12.7738 19.9979 12.964 19.9723C12.9665 19.972 12.9689 19.9717 12.9713 19.9713C12.9717 19.9689 12.972 19.9665 12.9723 19.964C12.9979 19.7738 13 19.4997 13 19V10C13 9.50034 12.9979 9.22618 12.9723 9.03599C12.972 9.03351 12.9717 9.03108 12.9713 9.02871C12.9689 9.02837 12.9665 9.02804 12.964 9.02771C12.7738 9.00214 12.4997 9.00001 12 9.00001C11.5003 9.00001 11.2262 9.00214 11.036 9.02771C11.0335 9.02804 11.0311 9.02837 11.0287 9.02871Z" fill="white"/>
<path fill-rule="evenodd" clip-rule="evenodd" d="M18.9456 2.00001C18.9637 2.00001 18.9819 2.00001 19 2.00001C19.0182 2.00001 19.0363 2.00001 19.0544 2.00001C19.4785 1.99992 19.8906 1.99984 20.2305 2.04554C20.6137 2.09706 21.051 2.22259 21.4142 2.5858C21.7774 2.94902 21.903 3.38629 21.9545 3.76949C22.0002 4.10941 22.0001 4.52154 22 4.9456C22 4.96372 22 4.98186 22 5.00001V19C22 19.0182 22 19.0363 22 19.0544C22.0001 19.4785 22.0002 19.8906 21.9545 20.2305C21.903 20.6137 21.7774 21.051 21.4142 21.4142C21.051 21.7774 20.6137 21.903 20.2305 21.9545C19.8906 22.0002 19.4785 22.0001 19.0544 22C19.0363 22 19.0182 22 19 22C18.9819 22 18.9637 22 18.9456 22C18.5215 22.0001 18.1094 22.0002 17.7695 21.9545C17.3863 21.903 16.949 21.7774 16.5858 21.4142C16.2226 21.051 16.0971 20.6137 16.0455 20.2305C15.9998 19.8906 15.9999 19.4785 16 19.0544C16 19.0363 16 19.0182 16 19V5.00001C16 4.98186 16 4.96372 16 4.94561C15.9999 4.52154 15.9998 4.10941 16.0455 3.76949C16.0971 3.38629 16.2226 2.94902 16.5858 2.5858C16.949 2.22259 17.3863 2.09706 17.7695 2.04554C18.1094 1.99984 18.5215 1.99992 18.9456 2.00001ZM18.0287 4.02871C18.0284 4.03108 18.028 4.03351 18.0277 4.03599C18.0021 4.22618 18 4.50034 18 5.00001V19C18 19.4997 18.0021 19.7738 18.0277 19.964C18.028 19.9665 18.0284 19.9689 18.0287 19.9713C18.0311 19.9717 18.0335 19.972 18.036 19.9723C18.2262 19.9979 18.5003 20 19 20C19.4997 20 19.7738 19.9979 19.964 19.9723C19.9665 19.972 19.9689 19.9717 19.9713 19.9713C19.9717 19.9689 19.972 19.9665 19.9723 19.964C19.9979 19.7738 20 19.4997 20 19V5.00001C20 4.50034 19.9979 4.22618 19.9723 4.03599C19.972 4.03351 19.9717 4.03108 19.9713 4.02871C19.9689 4.02837 19.9665 4.02804 19.964 4.02771C19.7738 4.00214 19.4997 4.00001 19 4.00001C18.5003 4.00001 18.2262 4.00214 18.036 4.02771C18.0335 4.02804 18.0311 4.02837 18.0287 4.02871Z" fill="white"/>
</svg>

<svg width="24" height="24" fill="none" xmlns="http://www.w3.org/2000/svg"><path fill-rule="evenodd" clip-rule="evenodd" d="M4.946 12h.108c.424 0 .837 0 1.177.046.383.051.82.177 1.183.54.363.363.489.8.54 1.184.046.34.046.752.046 1.176V19.054c0 .425 0 .837-.046 1.177-.051.383-.177.82-.54 1.183-.363.363-.8.489-1.183.54C5.89 22 5.478 22 5.054 22h-.108c-.424 0-.837 0-1.177-.046-.383-.051-.82-.177-1.183-.54-.363-.363-.489-.8-.54-1.184C2 19.89 2 19.479 2 19.055V15v-.054c0-.425 0-.837.046-1.176.051-.384.177-.821.54-1.184.363-.363.8-.489 1.183-.54C4.11 12 4.522 12 4.946 12zm-.917 2.029l-.001.007C4.002 14.226 4 14.5 4 15v4c0 .5.002.774.028.964v.007l.008.001c.19.026.464.028.964.028.5 0 .774-.002.964-.028a.16.16 0 0 0 .007 0l.001-.008C5.998 19.774 6 19.5 6 19v-4c0-.5-.002-.774-.028-.964v-.007l-.008-.001C5.774 14.002 5.5 14 5 14c-.5 0-.774.002-.964.028h-.007zM11.946 7h.108c.425 0 .837 0 1.176.046.384.051.821.177 1.184.54.363.363.489.8.54 1.183.046.34.046.753.046 1.177v9.108c0 .425 0 .837-.046 1.177-.051.383-.177.82-.54 1.183-.363.363-.8.489-1.184.54-.34.046-.752.046-1.176.046h-.108c-.425 0-.837 0-1.176-.046-.384-.051-.821-.177-1.184-.54-.363-.363-.489-.8-.54-1.184C9 19.89 9 19.479 9 19.055V10v-.054c0-.424 0-.837.046-1.177.051-.383.177-.82.54-1.183.363-.363.8-.489 1.184-.54C11.11 7 11.522 7 11.946 7zm-.917 2.029l-.001.007C11.002 9.226 11 9.5 11 10v9c0 .5.002.774.028.964v.007a.16.16 0 0 0 .008.001c.19.026.464.028.964.028.5 0 .774-.002.964-.028a.16.16 0 0 0 .007 0l.001-.008c.026-.19.028-.464.028-.964v-9c0-.5-.002-.774-.028-.964v-.007a.77.77 0 0 0-.008-.001C12.774 9.002 12.5 9 12 9c-.5 0-.774.002-.964.028a.77.77 0 0 0-.007 0zM18.946 2h.108c.425 0 .837 0 1.177.046.383.051.82.177 1.183.54.363.363.489.8.54 1.183.046.34.046.753.046 1.177v14.108c0 .425 0 .837-.046 1.177-.051.383-.177.82-.54 1.183-.363.363-.8.489-1.184.54-.34.046-.752.046-1.176.046h-.108c-.425 0-.837 0-1.177-.046-.383-.051-.82-.177-1.183-.54-.363-.363-.489-.8-.54-1.184C16 19.89 16 19.479 16 19.055V5v-.054c0-.424 0-.837.046-1.177.051-.383.177-.82.54-1.183.363-.363.8-.489 1.184-.54C18.11 2 18.521 2 18.945 2zm-.917 2.029l-.001.007C18.002 4.226 18 4.5 18 5v14c0 .5.002.774.028.964v.007a.16.16 0 0 0 .008.001c.19.026.464.028.964.028.5 0 .774-.002.964-.028a.16.16 0 0 0 .007 0l.001-.008c.026-.19.028-.464.028-.964V5c0-.5-.002-.774-.028-.964v-.007a.77.77 0 0 0-.008-.001C19.774 4.002 19.5 4 19 4c-.5 0-.774.002-.964.028a.77.77 0 0 0-.007 0z" fill="#fff"/></svg>
